X:37
T:Privateer
C:Roy Watrous, 1959
S:The Watrous Book, 1992
M:2/4
L:1/16
Q:1/4=90
K:Emin
%%MIDI program 72
%%MIDI transpose 8
%%MIDI ratio 3 1
BA|G2E2 E2D2|EFGA B2GA|B2e2 efg2|fedf e2::B2|
e2ef g2eg|f2df edB2|B2e2 efg2|fedf e2:|]

